usr/share/icons/biglinux-icons-material-dark/symbolic/actions/view-barcode.svg

<svg xmlns="http://www.w3.org/2000/svg" viewBox="0 0 16 16">
<defs id="defs3051">
<style id="current-color-scheme" type="text/css">
.ColorScheme-Contrast{color:#dedede}
</style>
</defs>
<path d="M2 2v12h1V2zm2 0v5h1V2zm2 0v12h1V2zm2 0v12h1V2zm2 0v6h1V2zm2 0v12h2V2z" class="ColorScheme-Contrast" style="fill:currentColor;fill-opacity:1;stroke:none"/>
</svg>

<svg xmlns="http://www.w3.org/2000/svg" viewBox="0 0 16 16">
  <defs id="defs3051">
    <style type="text/css" id="current-color-scheme">
      .ColorScheme-Text {
        color:#dedede;
      }
      </style>
  </defs>
 <path style="fill:currentColor;fill-opacity:1;stroke:none" 
     d="M 2 2 L 2 14 L 3 14 L 3 2 L 2 2 z M 4 2 L 4 7 L 5 7 L 5 2 L 4 2 z M 6 2 L 6 14 L 7 14 L 7 2 L 6 2 z M 8 2 L 8 14 L 9 14 L 9 2 L 8 2 z M 10 2 L 10 8 L 11 8 L 11 2 L 10 2 z M 12 2 L 12 14 L 14 14 L 14 2 L 12 2 z "
     class="ColorScheme-Text"
     />
</svg>
